X: 333
T: Margaret's Waltz
B: canberra pickers and fiddlers
B: good tune book
B: tunes
M:3/4
L:1/8
R: waltz
Q: 1/4=100
K:A
V:1 
AF|:E3 FAB|{B}c4 Ac|BA F2 Ac|B4 AF|
E3 FAB|ce3 AB|c2c2B2|1 A4 AF:|2 A4 cd||
e2 f2 g2|a2 g2 a2|fe d2 f2|e4 cB|
A3 B cd|e2 c2 e2|fe d2 c2|B4 cd|
e2 f2 g2|a2 g2 f2|e2 d2 c2|B4 AF|
E3 FAB|ce3 AB|c2 c2 B2|A6||
% abcbook-tune_id 63da59347be18328517f06d3
% abcbook-tune_composer_id 
% abcbook-link-0 https://www.youtube.com/watch?v=8BOx-6vFDVw
% abcbook-link-end-at-0 152
% abcbook-boost 0
% abcbook-difficulty 0
% abcbook-tags canberra pickers and fiddlers,good tune book,old time tunes,© free
% abcbook-tablature 
% abcbook-transpose 
% abcbook-tuning GDAE
% abcbook-lastupdated 1677372575705
% abcbook-src-url https://tunebook.net/scrape/tunes.abc
% abcbook-soundfonts 
% abcbook-repeats 1
%%gchordfont "itim-music,Itim" 20

